icons/thermometer_digital_fill.svg

<svg width="48" height="48" viewBox="0 0 48 48" fill="none" xmlns="http://www.w3.org/2000/svg">
<path fill-rule="evenodd" clip-rule="evenodd" d="M19.5345 7.38092L18.0117 4.99702L18.0035 5.00226C17.9738 4.94396 17.941 4.88658 17.9051 4.83031L17.8766 4.78566C17.282 3.85479 16.0453 3.58222 15.1145 4.17684L10.8003 6.93265C9.86944 7.52727 9.59687 8.76392 10.1915 9.69478L10.22 9.73943C10.256 9.7957 10.2942 9.84956 10.3347 9.90097L10.3265 9.9062L11.8493 12.2901L19.5345 7.38092ZM12.9259 13.9756L18.6753 22.976C19.289 23.9368 19.7978 24.3458 20.4664 24.8832C20.7721 25.1291 21.1114 25.4017 21.5093 25.7664C21.6827 25.9252 21.8992 26.0934 22.1666 26.3011C23.6546 27.4568 26.7198 29.8375 32.7099 38.6565C32.7493 38.6213 32.7921 38.5888 32.8381 38.5594L34.5459 37.4685C34.5902 37.4402 34.6359 37.4158 34.6826 37.3952C29.2022 28.2562 28.3322 24.4719 27.9099 22.6347C27.8338 22.3038 27.7722 22.0358 27.7008 21.8113C27.5373 21.297 27.4324 20.8745 27.338 20.4937C27.1314 19.6613 26.9742 19.0276 26.3604 18.0668L20.6111 9.06639L12.9259 13.9756ZM35.7134 39.0885C36.1543 39.8025 36.621 40.5461 37.1152 41.3205L37.7612 42.3317C38.0905 42.8473 37.9395 43.5322 37.4239 43.8616C36.9084 44.1909 36.2234 44.04 35.894 43.5244L35.2978 42.591C34.7851 41.7883 34.29 41.0262 33.8119 40.3024C33.8469 40.2855 33.8812 40.2663 33.9147 40.2449L35.6225 39.154C35.6544 39.1336 35.6847 39.1117 35.7134 39.0885ZM19.1474 12.4217L24.0566 20.1068L21.4949 21.7432L16.5858 14.0581L19.1474 12.4217Z" fill="black"/>
</svg>

<svg
  xmlns="http://www.w3.org/2000/svg"
  width="24"
  height="24"
  viewBox="0 0 24 24"
  fill="none"
  stroke="currentColor"
  stroke-width="2"
  stroke-linecap="round"
  stroke-linejoin="round"
>
  <path
    fill-rule="evenodd"
    d="m19.535 7.38-1.523-2.383-.009.005a2 2 0 0 0-.098-.172l-.028-.044a2 2 0 0 0-2.762-.61L10.8 6.934a2 2 0 0 0-.609 2.762l.029.044q.054.085.115.162l-.009.005 1.523 2.384zm-6.61 6.596 5.75 9c.614.96 1.123 1.37 1.791 1.907.306.246.645.519 1.043.883.174.16.39.327.658.535 1.488 1.156 4.553 3.537 10.543 12.356q.06-.053.128-.098l1.708-1.09q.066-.043.137-.074c-5.48-9.139-6.35-12.923-6.773-14.76-.076-.331-.138-.6-.21-.824a20 20 0 0 1-.362-1.317c-.207-.833-.364-1.466-.978-2.427l-5.749-9zm22.788 25.113q.661 1.07 1.402 2.232l.646 1.01a1.108 1.108 0 0 1-1.867 1.193l-.596-.933a178 178 0 0 0-1.486-2.289 1 1 0 0 0 .103-.057l1.708-1.091a1 1 0 0 0 .09-.066M19.147 12.422l4.91 7.685-2.562 1.636-4.91-7.685z"
    clip-rule="evenodd"
  />
</svg>
